app/dist/common/images/weightwatchers-international.svg

<svg height="18" width="18" xmlns="http://www.w3.org/2000/svg"><path d="m0 0h18v18h-18z" fill="#000585"/><path d="m6.805 9-1.805-5h1.547l1.031 3.61.774-3.61h1.546l.774 3.61 1.031-3.61h1.547l-1.547 5h-1.547l-1.031-2.938-.773 2.938zm.125 5-1.805-5h1.547l1.031 3.61.774-3.61h1.547l.773 3.61 1.031-3.61h1.547l-1.547 5h-1.547l-1.03-2.938-.775 2.938z" fill="#fff"/></svg>

<!-- by TradingView --><svg width="18" height="18" xmlns="http://www.w3.org/2000/svg"><path fill="#000585" d="M0 0h18v18H0z"/><path d="M6.805 9L5 4h1.547l1.031 3.61L8.352 4h1.546l.774 3.61L11.703 4h1.547l-1.547 5h-1.547L9.125 6.062 8.352 9H6.805zM6.93 14L5.125 9h1.547l1.031 3.61L8.477 9h1.547l.773 3.61L11.828 9h1.547l-1.547 5h-1.547l-1.03-2.938L8.476 14H6.93z" fill="#fff"/></svg>
